X: 26101
T: McFadden's Own
R: reel
M: 4/4
K: Dmajor
F2ED EA,3|DFAc dBAG|F2ED EA,3|BdAG FDDE|
F2ED EA,3|DFAF DGBG|AGFD EA,3|BdAG FD3||
dAFA d2fe|dAFA GE3|dAFA d2fe|dABG FDD2|
d2dc defe|d2cA BE3|dcBc dbaf|dBAG FADE||

